X: 20
T: No_116_Cottonwood_Leaves_Are_Falling.krn
N: Derived from No_116_Cottonwood_Leaves_Are_Falling.krn
%%abc-version 2.0
%%abcx-abcm2ps-target-version 5.9.1 (29 Sep 2008)
%%abc-creator hum2abc beta
%%abcx-conversion-date 2019/03/15 08:37:56
%%humdrum-veritas 847361834
%%humdrum-veritas-data 4175140302
%%linebreak <none>
%%barnumbers 0
L: 1/8
M: 2/4
K: F clef=bass
[K:clef=bass][M:2/4]F,2CC [I:setbarnb 2]| 
C2G,C ||  
[M:3/8]C2G, ||  
[M:3/4]B,2B,G, G, z ||  
[M:2/4]C2CA, | 
G,2F,G, ||  
[M:3/8]F,2D, ||  
[M:3/4]F,4z2 ||  
[M:2/4]D,2F,F, | 
A,2G,F, | 
G,2F,G, | 
(3F,F,F,F,2- | 
F,4 | 
F,2F,F, | 
F,2C,F, | 
(3F,F,F,F,2- | 
F,4 :|]  



